X: 1
T: String Quartet in B\b Major opus 76 no 4 mvt 4
C: Franz Joseph Haydn
%%abc-version 2.0
%%abcx-abcm2ps-target-version 5.9.1 (29 Sep 2008)
%%abc-creator hum2abc beta
%%abcx-conversion-date 2021/02/14 14:38:26
%%abc-copyright Copyright (c) 1994, 2000 Center for Computer Assisted Research in the Humanities
%%abc-edited-by Frances Bennion
%%abcx-initial-encoding-date 1997/04/15
%%gracespace 0 6 6
%%humdrum-veritas 2786843609
%%humdrum-veritas-data 2275027051
%%linebreak <none>
%%barnumbers 0
L: 1/8
M: 2/2
N: Derived from op76n4-04.krn
Q: "Finale: Allegro ma non troppo"
%%staves [1 2 3 4]
V: 1
V: 2
V: 3 clef=alto
V: 4 clef=bass
K: Bb
[V:1]z6 fe [I:setbarnb1]|
[V:2]z6 FA |
[V:3]z6 z2 |
[V:4]z6 z2 |
[V:1]d2 e2 c2 dc |
[V:2]B2 EF G2 FE |
[V:3]z2 CD E2 DE |
[V:4]z6 B,,C, |
[V:1]B2 c2 F2 GA |
[V:2]D2 CB, A,2 B,C |
[V:3]F2 G2 C2 DE |
[V:4]D,2 E,2 F,2 E,2 |
[V:1]B2 c2 d2 g2 |
[V:2]D2 E2 F2 B2 |
[V:3]F2 E2 D2 C2 |
[V:4]D,2 C,2 B,,2 E,,2 |
[V:1]cB cd c2 fe |
[V:2]AB AB A2 FA |
[V:3]C2 z6 |
[V:4]F,,4 z4 |
[V:1]d2 e2 c2 dc |
[V:2]B2 EF G2 FE |
[V:3]z2 CD E2 DE |
[V:4]z6 B,,C, |
[V:1]B2 c2 F2 GA |
[V:2]D2 CB, A,2 B,C |
[V:3]F2 G2 C2 DE |
[V:4]D,2 E,2 F,2 E,2 |
[V:1]B2 b2 c4 |
[V:2]Dd cB B2 A2 |
[V:3]F2 G2 F2 E2 |
[V:4]D,2 =E,2 F,4 |
[V:1]B2 F2 D2 AB |
[V:2]B2 z4 FG |
[V:3]D2 z6 |
[V:4]B,,2 B,2 B,,2 z2 |
[V:1]c2 d2 e2 Bc |
[V:2]A2 B2 c2 GA |
[V:3]F2 ED C2 z2 |
[V:4]z8 |
[V:1]d2 e2 f2 ga |
[V:2]B2 c2 d2 g^f |
[V:3]G2 FE D2 dc |
[V:4]z6 B,A, |
[V:1]b2 d'2 ^f4 |
[V:2]g2 B2 Ae dc |
[V:3]B2 G2 c2 BA |
[V:4]G,2 G,,2 D,2 D2 |
[V:1]g6 fg |
[V:2]B2 c2 d2 de |
[V:3]G2 FE D2 z2 |
[V:4]E2 DC =B,2 z2 |
[V:1]_a2 gf e2 f2 |
[V:2]f2 ed c2 d2 |
[V:3]z2 G2 _A2 GF |
[V:4]z8 |
[V:1]g2 fe d2 e2 |
[V:2]e2 dc B2 c2 |
[V:3]E2 F2 G2 FE |
[V:4]z8 |
[V:1]f2 ed c2 d2 |
[V:2]d2 cB A2 dc |
[V:3]D2 E2 F2 F2 |
[V:4]z6 B,A, |
[V:1]=ef ga b2 e2 |
[V:2]BA GF =E2 G2 |
[V:3]GA Bc d2 BG |
[V:4]G,F, =E,D, C,2 CB, |
[V:1]f2 =e2 f2 e2 |
[V:2]A2 G2 F2 G2 |
[V:3]F2 B2 c2 BG |
[V:4]A,F, CB, A,F, C,B,, |
[V:1]f2 =e2 f2 AB |
[V:2]A2 G2 F2 FG |
[V:3]F2 CB, A,F, z2 |
[V:4]A,,F,, C,B,, A,,F,, z2 |
[V:1]cA cd ec ef |
[V:2]AF AB cA cd |
[V:3]F,2 z6 |
[V:4]F,,2 z6 |
[V:1]g6 fe |
[V:2]e6 dc |
[V:3][C,2A,2] z6 |
[V:4]F,,2 z6 |
[V:1]g6 fe |
[V:2]e6 dc |
[V:3][A,2C,2] z6 |
[V:4]F,,2 z6 |
[V:1]gf eg fe gf |
[V:2]ed ce dc ed |
[V:3][C,2A,2] z6 |
[V:4]F,,2 z6 |
[V:1]eg fe gf eg |
[V:2]ce dc ed ce |
[V:3]z8 |
[V:4]z8 |
[V:1]fe gf eg fe |
[V:2]dc ed ce FA |
[V:3]z8 |
[V:4]z8 |
[V:1]d2 e2 c2 dc |
[V:2]B2 EF G2 FE |
[V:3]z2 CD E2 DE |
[V:4]z6 B,,C, |
[V:1]B2 c2 F2 GA |
[V:2]D2 CB, A,2 B,C |
[V:3]F2 G2 C2 DE |
[V:4]D,2 E,2 F,2 E,2 |
[V:1]B2 c2 d2 g2 |
[V:2]D2 E2 F2 B2 |
[V:3]F2 E2 D2 C2 |
[V:4]D,2 C,2 B,,2 E,,2 |
[V:1]cB cd c2 z2 |
[V:2]AB AB A2 fe |
[V:3]C4 z2 dc |
[V:4]F,,8- |
[V:1]gf e2 f2 d2 |
[V:2]d2 e2 c2 dc |
[V:3]=B2 c2 A2 _BA |
[V:4]F,,8- |
[V:1]ed c2 d2 B2 |
[V:2]B2 c2 A2 BA |
[V:3]G2 A2 F2 D2 |
[V:4]F,,6 G,F, |
[V:1]cB A2 B2 [e2F2] |
[V:2]G2 AG F2 c2 |
[V:3]ED C2 D2 F2 |
[V:4]E,2 F,E, D,2 A,,2 |
[V:1][d2F2] [g2B2] [B2f2] [_a2B2] |
[V:2]B2 E2 D2 _a2 |
[V:3]B,2 z4 F2 |
[V:4]B,,2 z4 D,2 |
[V:1][B2g2] b2 c4 |
[V:2]g2 [B2G2] [B2F2] [A2E2] |
[V:3]B,2 _D2 F2 F2 |
[V:4]E,2 =E,2 F,4 |
[V:1]B2 z4 fb |
[V:2][D2B2] z3 z3 |
[V:3]F2 z6 |
[V:4]B,2 F,2 B,,2 z2 |
[V:1]_d'b ac' b2 B_g |
[V:2]f2 e2 _d2 _g2 |
[V:3]F,2 CA, B,2 C2 |
[V:4]B,,2 C,2 _D,2 E,2 |
[V:1]fB Ae _d2 =d2 |
[V:2]f2 c2 _d2 B,2 |
[V:3]_D2 EF B,2 F2 |
[V:4]F,2 A,2 B,2 _A,2 |
[V:1]e2 f2 _g2 c2 |
[V:2]B2 _A2 _G2 E2 |
[V:3]E2 d2 e2 _A,2 |
[V:4]_G,2 F,2 E,2 G,2 |
[V:1]_d2 e2 f2 [_A,2_A2] |
[V:2]F2 _G2 _A2 E2 |
[V:3]_A2 c2 _d2 C2 |
[V:4]F,2 E,2 _D,2 C,2 |
[V:1][_A,2_A2] [A2A,2] [A2A,2] [A2A,2] |
[V:2]F2 _G2 E2 F2 |
[V:3]_D2 E2 C2 D2 |
[V:4]_D,2 E,2 C,2 D,2 |
[V:1][_A2_A,2] >_G2 F2 B2 |
[V:2]_G2 E2 F2 =E2 |
[V:3]E2 C2 _A,2 A,2 |
[V:4]E,2 C,2 _D,2 G,2 |
[V:1]_A2 B2 A2 _ge |
[V:2]F2 =E2 F2 C2 |
[V:3]_A,2 A,4 E_G |
[V:4]_A,2 G,2 A,2 _A,,2 |
[V:1]_d2 _d'2 z2 _g2 |
[V:2]_D2 z4 e2 |
[V:3]F2 _D,2 z2 _A2 |
[V:4]_D,2 _D,,2 z2 C2 |
[V:1]f2 _g2 f2 _a2 |
[V:2]_d2 e2 d2 f2 |
[V:3]_A2 A2 A2 _c2 |
[V:4]_D2 C2 D2 =D2 |
[V:1]_g2 _a2 g2 b2 |
[V:2]e2 f2 e2 g2 |
[V:3]B2 _c2 B2 _d2 |
[V:4]E2 D2 E2 =E2 |
[V:1]a2 b2 a2 _d'2 |
[V:2]f2 g2 f2 =e2 |
[V:3]c2 _d2 c2 B2 |
[V:4]F2 =E2 F2 F2- |
[V:1]c'2 _d'2 c'2 b=e |
[V:2]f2 =e2 f2 B2 |
[V:3]A2 B2 A2 c2- |
[V:4]F2 F4 _G2 |
[V:1]fc b=e fc be |
[V:2]A2 B2 A2 B2 |
[V:3]c2 c4 c2- |
[V:4]F2 _G2 F2 G2 |
[V:1]fc fc f2 fb |
[V:2]A2 A2 A2 z2 |
[V:3]c2 c2 c2 z2 |
[V:4]F2 F2 F2 z2 |
[V:1]_d'b ac' b2 B_g |
[V:2]f2 e2 _d2 _g2 |
[V:3]F,2 CA, B,2 C2 |
[V:4]B,,2 C,2 _D,2 E,2 |
[V:1]fB Ae _d2 =d2 |
[V:2]f2 c2 _d2 B,2 |
[V:3]_D2 EF B,2 F2 |
[V:4]F,2 A,2 B,2 _A,2 |
[V:1]e2 f2 _g2 g2 |
[V:2]B2 _A2 _G2 E2 |
[V:3]E2 _A2 B2 B,2 |
[V:4]_G,2 F,2 E,2 E,2 |
[V:1]A,4- A,_g fe |
[V:2]_G6 c2 |
[V:3]C6 F2 |
[V:4]E,6 A,,2 |
[V:1]_d_d' c'b a_g' f'e' |
[V:2]_d2 z2 e2 z2 |
[V:3]F2 z2 F2 z2 |
[V:4]B,,2 z2 C,2 z2 |
[V:1]_d'2 b'2 b'2 b'2 |
[V:2]f2 z6 |
[V:3]B,2 z6 |
[V:4]_D,2 z6 |
[V:1]E2 z2 F2 z2 |
[V:2]E2 z2 F2 z2 |
[V:3]E,2 z2 F,2 z2 |
[V:4]E,2 z2 F,2 z2 |
[V:1]B,2 z4 _g2 |
[V:2]B,2 z4 e2 |
[V:3]B,2 z4 _A2 |
[V:4]B,,2 z4 C2 |
[V:1]f2 _g2 f2 _a2 |
[V:2]_d2 e2 d2 f2 |
[V:3]_A2 A2 A2 _c2 |
[V:4]_D2 C2 D2 =D2 |
[V:1]_g2 _a2 g2 b2 |
[V:2]e2 f2 e2 g2 |
[V:3]B2 _c2 B2 _d2 |
[V:4]E2 D2 E2 =E2 |
[V:1]a2 b2 a2 _d'2 |
[V:2]f2 g2 f2 =e2 |
[V:3]c2 _d2 c2 B2 |
[V:4]F2 =E2 F2 F2- |
[V:1]c'2 _d'2 c'2 b=e |
[V:2]f2 =e2 f2 B2 |
[V:3]A2 B2 A2 c2- |
[V:4]F2 F4 _G2 |
[V:1]fc b=e fc be |
[V:2]A2 B2 A2 B2 |
[V:3]c2 c4 c2- |
[V:4]F2 _G2 F2 G2 |
[V:1]fc fc f2 fb |
[V:2]A2 A2 A2 z2 |
[V:3]c2 c2 c2 z2 |
[V:4]F2 F2 F2 z2 |
[V:1]_d'b ac' b2 B_g |
[V:2]f2 e2 _d2 _g2 |
[V:3]F,2 CA, B,2 C2 |
[V:4]B,,2 C,2 _D,2 E,2 |
[V:1]fB Ae _d2 =d2 |
[V:2]f2 c2 _d2 B,2 |
[V:3]_D2 EF B,2 F2 |
[V:4]F,2 A,2 B,2 _A,2 |
[V:1]e2 f2 _g2 g2 |
[V:2]B2 _A2 _G2 E2 |
[V:3]E2 _A2 B2 B,2 |
[V:4]_G,2 F,2 E,2 E,2 |
[V:1]A,6 AB |
[V:2]_G8 |
[V:3]C8 |
[V:4]E,8 |
[V:1]c2 c_d e2 ef |
[V:2]z8 |
[V:3]z8 |
[V:4]z8 |
[V:1]_g6 ef |
[V:2]E8 |
[V:3]C8 |
[V:4]A,,8 |
[V:1]_g2 gf e2 ef |
[V:2]z8 |
[V:3]z8 |
[V:4]z8 |
[V:1]_g2 gf e2 ef |
[V:2]z8 |
[V:3]z8 |
[V:4]z8 |
[V:1]_g2 gf e2 ef |
[V:2]z8 |
[V:3]z8 |
[V:4]z8 |
[V:1]_g2 gf e2 gf |
[V:2]z8 |
[V:3]z8 |
[V:4]z8 |
[V:1]e2 _gf e2 gf |
[V:2]z8 |
[V:3]z8 |
[V:4]z8 |
[V:1]e2 _gf e2 fe |
[V:2]z6 FA |
[V:3]z8 |
[V:4]z8 |
[V:1]d2 e2 c2 dc |
[V:2]B2 EF G2 FE |
[V:3]z2 CD E2 DE |
[V:4]z6 B,,C, |
[V:1]B2 c2 F2 GA |
[V:2]D2 CB, A,2 B,C |
[V:3]F2 G2 C2 DE |
[V:4]D,2 E,2 F,2 E,2 |
[V:1]B2 c2 d2 g2 |
[V:2]D2 E2 F2 B2 |
[V:3]F2 E2 D2 C2 |
[V:4]D,2 C,2 B,,2 E,,2 |
[V:1]cB cd cg fe |
[V:2]AB AB A2 z2 |
[V:3]C2 z6 |
[V:4]F,,4 z4 |
[V:1]df ed ce dc |
[V:2]z2 F2 z2 E2 |
[V:3]z2 D2 z2 A,2 |
[V:4]z2 B,,2 z2 F,2 |
[V:1]Bd cB _Ac BA |
[V:2]z2 D2 z2 F2 |
[V:3]z2 B,2 z2 B,2 |
[V:4]z2 G,2 z2 D,2 |
[V:1]G2 b2 c4 |
[V:2]Gd cB B2 A2 |
[V:3]B,2 G2 F2 E2 |
[V:4]E,2 =E,2 F,4 |
[V:1]B2 F2 D2 AB |
[V:2]B2 z4 FG |
[V:3]D2 z6 |
[V:4]B,,2 B,2 B,,2 z2 |
[V:1]c2 d2 e2 Bc |
[V:2]A2 B2 c2 GA |
[V:3]F2 ED C2 z2 |
[V:4]z8 |
[V:1]d2 e2 f2 ga |
[V:2]B2 c2 d2 g^f |
[V:3]G2 FE D2 dc |
[V:4]z6 B,A, |
[V:1]b2 d'2 ^f4 |
[V:2]g2 B2 Ae dc |
[V:3]B2 G2 c2 BA |
[V:4]G,2 G,,2 D,2 D2 |
[V:1]g6 fg |
[V:2]B2 c2 d2 de |
[V:3]G2 FE D2 z2 |
[V:4]E2 DC =B,2 z2 |
[V:1]_a2 gf e2 f2 |
[V:2]f2 ed c2 d2 |
[V:3]z2 G2 _A2 GF |
[V:4]z8 |
[V:1]g2 fe d2 e2 |
[V:2]e2 dc B2 c2 |
[V:3]E2 F2 G2 FE |
[V:4]z8 |
[V:1]f2 ed c2 d2 |
[V:2]d2 cB A2 dc |
[V:3]D2 E2 F2 F2 |
[V:4]z6 B,A, |
[V:1]=ef ga b2 e2 |
[V:2]BA GF =E2 G2 |
[V:3]GA Bc d2 BG |
[V:4]G,F, =E,D, C,2 CB, |
[V:1]f2 =e2 f2 e2 |
[V:2]A2 G2 F2 G2 |
[V:3]F2 B2 c2 BG |
[V:4]A,F, CB, A,F, C,B,, |
[V:1]f2 =e2 f2 AB |
[V:2]A2 G2 F2 FG |
[V:3]F2 CB, A,F, z2 |
[V:4]A,,F,, C,B,, A,,F,, z2 |
[V:1]cA cd ec ef |
[V:2]AF AB cA cd |
[V:3]F,2 z6 |
[V:4]F,,2 z6 |
[V:1]g6 fe |
[V:2]e6 dc |
[V:3]z2 A,B, CA, z2 |
[V:4]z2 F,G, A,F, z2 |
[V:1]g6 fe |
[V:2]e6 dc |
[V:3]z2 A,B, CA, z2 |
[V:4]z2 F,G, A,F, z2 |
[V:1]gf eg fe gf |
[V:2]ed ce dc ed |
[V:3]z8 |
[V:4]z8 |
[V:1]eg fe gf eg |
[V:2]ce dc ed ce |
[V:3]z8 |
[V:4]z8 |
[V:1]fe gf eg fe |
[V:2]dc ed cF GA |
[V:3]z8 |
[V:4]z8 |
[V:1]d2 e2 c2 dc |
[V:2]B2 EF G2 FE |
[V:3]zB, CD E2 DE |
[V:4]z4 zA,, B,,C, |
[V:1]B2 c2 F2 GA |
[V:2]D2 CB, A,2 B,C |
[V:3]F2 G2 C2 DE |
[V:4]D,2 E,2 F,2 E,2 |
[V:1]B2 c2 d2 g2 |
[V:2]D2 E2 F2 B2 |
[V:3]F2 E2 D2 C2 |
[V:4]D,2 C,2 B,,2 E,,2 |
[V:1]cB cd c2 z_a |
[V:2]AB AB Ag fe |
[V:3]C4 ze dc |
[V:4]F,,8- |
[V:1]gf eg fe df |
[V:2]df ed ce dc |
[V:3]=Bd c_B Ac BA |
[V:4]F,,8- |
[V:1]ed ce dc B=B |
[V:2]Bd cB A2 G2- |
[V:3]GB AG F^F G=F |
[V:4]F,,4 F,^F, G,=F, |
[V:1]cB Ac B2 [e2F2] |
[V:2]G2 A2 B2 c2 |
[V:3]EG FE D2 F2 |
[V:4]E,G, F,E, D,2 A,,2 |
[V:1][d2F2] [g2B2] [f2B2] [_a2B2] |
[V:2]B2 E2 D2 [_a2B2] |
[V:3]B,2 z4 F2 |
[V:4]B,,2 z4 D,2 |
[V:1][g4B4] [b4_d4=E4] |
[V:2][B4g4] _D4 |
[V:3]B,4 G4 |
[V:4]E,4 =E,4 |
[V:1]z2 >=E2 E3 D/E/ |
[V:2]z2 >=E2 E3 D/E/ |
[V:3]z2 >=E,2 E,3 D,/E,/ |
[V:4]z2 >=E,,2 E,,3 D,,/E,,/ |
[V:1]F8- |
[V:2]F8- |
[V:3]F,8- |
[V:4]F,,8- |
[V:1]F4- FG FE |
[V:2]F4 z4 |
[V:3]F,8 |
[V:4]F,,8 |
[V:1]DF ED CE DC |
[V:2]z8 |
[V:3]z8 |
[V:4]z8 |
[V:1]B,D CB, A,G FE |
[V:2]z8 |
[V:3]z8 |
[V:4]z8 |
[V:1]D2 z6 |
[V:2]DF ED Cz3 |
[V:3]z4 CE DC |
[V:4]z8 |
[V:1]z4 z_A GF |
[V:2]z8 |
[V:3]B,2 z6 |
[V:4]B,D CB, A,z3 |
[V:1]E2 z6 |
[V:2]zG FE D2 z2 |
[V:3]z4 zF ED |
[V:4]z8 |
[V:1]z4 zG, A,=B, |
[V:2]z8 |
[V:3]C2 z6 |
[V:4]zE DC =B,2 z2 |
[V:1]C2 z6 |
[V:2]z=B, CD E2 z2 |
[V:3]z4 zF, G,A, |
[V:4]z8 |
[V:1]z4 zG A=B |
[V:2]z8 |
[V:3]B,2 z4 F2 |
[V:4]zA, B,C D2 z2 |
[V:1]c2 z2 >F2 GA |
[V:2]z=B cd e2 z2 |
[V:3]E2 z4 E2 |
[V:4]z2 D2 C2 z2 |
[V:1]B2 z2 >d2 =e^f |
[V:2]zA Bc d2 z2 |
[V:3]D2 z4 c2 |
[V:4]z2 C2 B,2 z2 |
[V:1]g^f ga bc d=e |
[V:2]z2 A2 G2 z2 |
[V:3]B2 z4 B2 |
[V:4]z8 |
[V:1]f=e fg _a2 d2 |
[V:2]z2 G2 F2 F2 |
[V:3]_A2 z6 |
[V:4]z4 zC, B,,_A,, |
[V:1]e2 f2 g2 =B2 |
[V:2]G2 _A2 B2 D2 |
[V:3]B,C B,_A, G,2 z2 |
[V:4]G,,_A,, G,,F,, E,,A,, G,,F,, |
[V:1]c2 d2 eg fe |
[V:2]E2 F2 G2 A2 |
[V:3]G,_A, G,F, E,2 C2 |
[V:4]E,,F,, E,,D,, C,,2 F,,2 |
[V:1]de dc Bg fe |
[V:2]B2 z2 >e2 dc |
[V:3]D2 z2 >A,2 B,C |
[V:4]B,,2 z2 >F,2 G,A, |
[V:1]de dc Bg fe |
[V:2]B2 z2 >e2 dc |
[V:3]D2 z2 >A,2 B,C |
[V:4]B,2 z2 >F,2 G,A, |
[V:1]dg fe dg fe |
[V:2]Be dc Be dc |
[V:3]DA, B,C DA, B,C |
[V:4]B,F, G,A, B,F, G,A, |
[V:1]dg fe dg fe |
[V:2]Be dc Be dc |
[V:3]DA, B,C DA, B,C |
[V:4]B,F, G,A, B,F, G,A, |
[V:1]df ed ce dc |
[V:2]B2 z2 A2 z2 |
[V:3]D2 z2 E2 z2 |
[V:4]B,2 z2 F,2 z2 |
[V:1]Bd cB AF GA |
[V:2]B2 G2 FA, B,C |
[V:3]D2 =E2 FC D_E |
[V:4]G,2 =E,2 F,2 _E,2 |
[V:1]cB dc ed ge |
[V:2]D2 E2 F2 B2 |
[V:3]F2 E2 D2 C2 |
[V:4]D,2 C,2 B,,2 E,,2 |
[V:1]cB cd cg fe |
[V:2]AB AB A2 z2 |
[V:3]C2 z6 |
[V:4]F,,4 z4 |
[V:1]df ed ce dc |
[V:2]F2 z2 E2 z2 |
[V:3]D2 z2 A,2 z2 |
[V:4]B,2 z2 F,2 z2 |
[V:1]Bd cB _Ac BA |
[V:2]D2 z2 F2 z2 |
[V:3]B,2 z2 B,2 z2 |
[V:4]G,2 z2 D,2 z2 |
[V:1]G2 b2 c4 |
[V:2]Gd cB B2 A2 |
[V:3]B,2 G2 F2 E2 |
[V:4]E,2 =E,2 F,4 |
[V:1]B2 z2 >d2 cB |
[V:2]B2 F2 D2 z2 |
[V:3]D2 z6 |
[V:4]B,,2 B,2 B,,2 z2 |
[V:1]Ac Bd cf =eg |
[V:2]F2 G2 A2 B2 |
[V:3]z8 |
[V:4]z8 |
[V:1]fa g=e fd cB |
[V:2]A2 z6 |
[V:3]z8 |
[V:4]z8 |
[V:1]Ac Bd cf =eg |
[V:2]F2 G2 A2 B2 |
[V:3]z8 |
[V:4]z8 |
[V:1]fa g=e fd cB |
[V:2]A2 z6 |
[V:3]z8 |
[V:4]z8 |
[V:1]Ac Bd ce df |
[V:2]F2 G2 A2 B2 |
[V:3]z8 |
[V:4]z8 |
[V:1]ed ed eg fe |
[V:2]c2 z6 |
[V:3]z8 |
[V:4]z8 |
[V:1]df ed ce dc |
[V:2]B2 z2 A2 z2 |
[V:3]F2 z2 E2 z2 |
[V:4]B,2 z2 F,2 z2 |
[V:1]Bd cB AF GA |
[V:2]B2 G2 FA, B,C |
[V:3]D2 =E2 FC D_E |
[V:4]G,2 =E,2 F,2 _E,2 |
[V:1]cB dc ed ge |
[V:2]D2 E2 F2 B2 |
[V:3]F2 E2 D2 C2 |
[V:4]D,2 C,2 B,,2 E,,2 |
[V:1]cB cd cg fe |
[V:2]AB AB A2 z2 |
[V:3]C2 z6 |
[V:4]F,,4 z4 |
[V:1]df ed ce dc |
[V:2]z2 F2 z2 E2 |
[V:3]z2 D2 z2 A,2 |
[V:4]z2 B,,2 z2 F,2 |
[V:1]Bd cB _Ac BA |
[V:2]z2 D2 z2 F2 |
[V:3]z2 B,2 z2 B,2 |
[V:4]z2 G,2 z2 D,2 |
[V:1]G2 b2 c4 |
[V:2]Gd cB B2 A2 |
[V:3]B,2 G2 FG FE |
[V:4]E,2 =E,2 F,4 |
[V:1]B2 b4 b2- |
[V:2]Bg fe de dc |
[V:3]DE DC B,G FE |
[V:4]B,,2 z6 |
[V:1]b2 b4 b2- |
[V:2]Bg fe de dc |
[V:3]DE DC B,G FE |
[V:4]B,,2 z6 |
[V:1]bg fe d2 =e2 |
[V:2]B2 z4 G2 |
[V:3]DE DC B,2 C2 |
[V:4]B,,2 z2 >D2 CB, |
[V:1]f2 z4 =e2 |
[V:2]F2 z4 G2 |
[V:3]C2 z4 B2 |
[V:4]A,B, A,G, F,D CB, |
[V:1]f2 z4 a2 |
[V:2]F2 z4 c2 |
[V:3]cd cB AB AG |
[V:4]A,B, A,G, F,G, F,E, |
[V:1]b2 z4 d'2 |
[V:2]B2 z4 f2 |
[V:3]FG FE DE DC |
[V:4]D,E, D,C, B,,C, B,,_A,, |
[V:1]e'2 z2 g'2 z2 |
[V:2]e2 z2 [E2g2B2] z2 |
[V:3]B,C B,_A, G,2 z2 |
[V:4]G,,_A,, G,,F,, E,,2 z2 |
[V:1]z4 z_a g^f |
[V:2]z8 |
[V:3]z8 |
[V:4]z8 |
[V:1]g_a g^f ga g=f |
[V:2]d2 z2 d2 z2 |
[V:3]=B2 z2 B2 z2 |
[V:4]z8 |
[V:1]ed ed cg f=e |
[V:2]e2 z6 |
[V:3]c2 z6 |
[V:4]z8 |
[V:1]fg f=e fg f_e |
[V:2]c2 z2 c2 z2 |
[V:3]A2 z2 A2 z2 |
[V:4]z8 |
[V:1]de dc Bb ag |
[V:2]d2 z2 >B2 AG |
[V:3]B2 z2 >B2 AG |
[V:4]z4 zB, A,G, |
[V:1]fg fe db ag |
[V:2]FG FE DB AG |
[V:3]FG FE DB AG |
[V:4]F,G, F,E, D,B, A,G, |
[V:1]fg fe dd' c'b |
[V:2]FG FE Dd cB |
[V:3]FG FE Dd cB |
[V:4]F,G, F,E, D,D CB, |
[V:1]ab ag fg fe |
[V:2]AB AG FG FE |
[V:3]AB AG FG FE |
[V:4]A,B, A,G, F,G, F,E, |
[V:1]de dc Bc BA |
[V:2]De dc Bc BA |
[V:3]DE DC B,C B,A, |
[V:4]D,E, D,C, B,,C, B,,A,, |
[V:1]G_A GF EF ED |
[V:2]G_A GF EF ED |
[V:3]G,_A, G,F, E,F, E,D, |
[V:4]G,,_A,, G,,F,, E,,F,, E,,D,, |
[V:1]C8 |
[V:2]C8 |
[V:3]C,8 |
[V:4]C,,8 |
[V:1]_D2 =D2 E2 =E2 |
[V:2]_D2 =D2 E2 =E2 |
[V:3]_D,2 =D,2 E,2 =E,2 |
[V:4]_D,,2 =D,,2 E,,2 =E,,2 |
[V:1]F2 Bd f2 b2 |
[V:2]F2 d4 d2 |
[V:3]F,8 |
[V:4]F,,8 |
[V:1]a2 c'2 e'2 a2 |
[V:2][E2c2] [A2E2] [E2A2] [c2E2] |
[V:3][E2C2] [E2C2] [E2C2] [E2C2] |
[V:4]F,,2 F,,2 F,,2 F,,2 |
[V:1]b2 z2 c'2 z2 |
[V:2][D2B2] z2 [F2e2] z2 |
[V:3][D2B,2] z2 [C2F2] z2 |
[V:4]B,,2 z2 F,2 z2 |
[V:1]d'2 z2 a2 z2 |
[V:2][d2F2] z2 [e2F2] z2 |
[V:3][F2B,2] z2 C2 z2 |
[V:4]B,2 z2 F,2 z2 |
[V:1]b2 z6 |
[V:2][d2F2] z6 |
[V:3]D2 z6 |
[V:4]B,,2 z6 |
[V:1][f4F4A4] z4 |
[V:2][A4C4E4] z4 |
[V:3][E4C4] z4 |
[V:4]F,4 z4 |
[V:1][B,4F4d4] z4 |]
[V:2][B4D4B,4] z4 |]
[V:3][D4B,4] z4 |]
[V:4][B,4D,4B,,4] z4 |]

